X:1
T: Lady Jean Montgomerie
C:Niel Gow
R:Strathspey
Q: 128
K:F
M:4/4
L:1/16
|:f2|cF3 c3A G3A B3d|cF3 c3A c3d f3a|fd3 c3A G3A Bd3|cF3 c3A F6:|
f2|:F3f f3a g3f ga3|c3f f3a f3a fc3|d3f c3A G3A B3d|cF3 c3A F4 F2f2|
F3f f3a g3f ga3|c3f f3a f3a fc3|d3f c3A G3A B3d|1F2fa ae3 f4 f2d2:|2F2fa ae3 f4 f2|
|:f2|cF3 c3A G3A B3d|cF3 c3A c3d f3a|fd3 c3A G3A Bd3|cF3 c3A F6:|
